build/img/icon-right.svg

<svg width="46" height="67" viewBox="0 0 46 67" fill="none" xmlns="http://www.w3.org/2000/svg">
<g filter="url(#filter0_d)">
<path d="M35.2164 29.4956L8.34319 53.2406C8.23446 53.3358 8.14815 53.4491 8.08924 53.5739C8.03033 53.6988 8 53.8327 8 53.968C8 54.1033 8.03033 54.2373 8.08924 54.3621C8.14815 54.487 8.23446 54.6002 8.34319 54.6954C8.45196 54.792 8.58121 54.8686 8.72353 54.9208C8.86585 54.9731 9.01843 55 9.17253 55C9.32662 55 9.4792 54.9731 9.62152 54.9208C9.76383 54.8686 9.89309 54.792 10.0019 54.6954L37.6556 30.2354C37.7648 30.1392 37.8514 30.0248 37.9105 29.899C37.9696 29.7731 38 29.6381 38 29.5018C38 29.3655 37.9696 29.2306 37.9105 29.1047C37.8514 28.9788 37.7648 28.8645 37.6556 28.7683L10.0019 4.29589C9.77718 4.10485 9.47721 3.99873 9.16555 4.00001C8.93559 4.00192 8.71135 4.06368 8.52083 4.1776C8.3303 4.29152 8.18192 4.45255 8.09421 4.64059C8.0065 4.82862 7.98334 5.03535 8.02762 5.23496C8.07189 5.43457 8.18165 5.61822 8.34319 5.76301L35.2164 29.4956Z" fill="#283645"/>
<path d="M35.2164 29.4956L8.34319 53.2406C8.23446 53.3358 8.14815 53.4491 8.08924 53.5739C8.03033 53.6988 8 53.8327 8 53.968C8 54.1033 8.03033 54.2373 8.08924 54.3621C8.14815 54.487 8.23446 54.6002 8.34319 54.6954C8.45196 54.792 8.58121 54.8686 8.72353 54.9208C8.86585 54.9731 9.01843 55 9.17253 55C9.32662 55 9.4792 54.9731 9.62152 54.9208C9.76383 54.8686 9.89309 54.792 10.0019 54.6954L37.6556 30.2354C37.7648 30.1392 37.8514 30.0248 37.9105 29.899C37.9696 29.7731 38 29.6381 38 29.5018C38 29.3655 37.9696 29.2306 37.9105 29.1047C37.8514 28.9788 37.7648 28.8645 37.6556 28.7683L10.0019 4.29589C9.77718 4.10485 9.47721 3.99873 9.16555 4.00001C8.93559 4.00192 8.71135 4.06368 8.52083 4.1776C8.3303 4.29152 8.18192 4.45255 8.09421 4.64059C8.0065 4.82862 7.98334 5.03535 8.02762 5.23496C8.07189 5.43457 8.18165 5.61822 8.34319 5.76301L35.2164 29.4956Z" stroke="black" stroke-width="7"/>
</g>
<defs>
<filter id="filter0_d" x="0.5" y="0.5" width="45" height="66" filterUnits="userSpaceOnUse" color-interpolation-filters="sRGB">
<feFlood flood-opacity="0" result="BackgroundImageFix"/>
<feColorMatrix in="SourceAlpha" type="matrix" values="0 0 0 0 0 0 0 0 0 0 0 0 0 0 0 0 0 0 127 0"/>
<feOffset dy="4"/>
<feGaussianBlur stdDeviation="2"/>
<feColorMatrix type="matrix" values="0 0 0 0 0 0 0 0 0 0 0 0 0 0 0 0 0 0 0.25 0"/>
<feBlend mode="normal" in2="BackgroundImageFix" result="effect1_dropShadow"/>
<feBlend mode="normal" in="SourceGraphic" in2="effect1_dropShadow" result="shape"/>
</filter>
</defs>
</svg>

<svg width="46" height="67" fill="none" xmlns="http://www.w3.org/2000/svg"><g filter="url(#filter0_d)"><path d="M35.216 29.496L8.343 53.24a1.027 1.027 0 00-.254.333.922.922 0 000 .788c.06.125.145.238.254.333.109.097.238.174.38.226a1.304 1.304 0 00.899 0 1.19 1.19 0 00.38-.226l27.654-24.46c.109-.096.195-.21.255-.336a.933.933 0 000-.794 1.037 1.037 0 00-.255-.337L10.002 4.296A1.287 1.287 0 009.166 4a1.28 1.28 0 00-.645.178c-.19.114-.34.275-.427.463a.925.925 0 00-.066.594c.044.2.154.383.315.528l26.873 23.733z" fill="#283645"/><path d="M35.216 29.496L8.343 53.24a1.027 1.027 0 00-.254.333.922.922 0 000 .788c.06.125.145.238.254.333.109.097.238.174.38.226a1.304 1.304 0 00.899 0 1.19 1.19 0 00.38-.226l27.654-24.46c.109-.096.195-.21.255-.336a.933.933 0 000-.794 1.037 1.037 0 00-.255-.337L10.002 4.296A1.287 1.287 0 009.166 4a1.28 1.28 0 00-.645.178c-.19.114-.34.275-.427.463a.925.925 0 00-.066.594c.044.2.154.383.315.528l26.873 23.733z" stroke="#000" stroke-width="7"/></g><defs><filter id="filter0_d" x=".5" y=".5" width="45" height="66" filterUnits="userSpaceOnUse" color-interpolation-filters="sRGB"><feFlood flood-opacity="0" result="BackgroundImageFix"/><feColorMatrix in="SourceAlpha" values="0 0 0 0 0 0 0 0 0 0 0 0 0 0 0 0 0 0 127 0"/><feOffset dy="4"/><feGaussianBlur stdDeviation="2"/><feColorMatrix values="0 0 0 0 0 0 0 0 0 0 0 0 0 0 0 0 0 0 0.25 0"/><feBlend in2="BackgroundImageFix" result="effect1_dropShadow"/><feBlend in="SourceGraphic" in2="effect1_dropShadow" result="shape"/></filter></defs></svg>
